icons/hbase.svg

<?xml version="1.0" encoding="UTF-8" standalone="no"?>
<svg width="256px" height="202px" viewBox="0 0 256 202" version="1.1" xmlns="http://www.w3.org/2000/svg" xmlns:xlink="http://www.w3.org/1999/xlink" preserveAspectRatio="xMidYMid">
    <g>
        <path d="M146.807045,120.124162 C140.228045,120.258162 133.644045,120.165162 127.062045,120.165162 L127.062045,120.426162 C120.841045,120.426162 114.619045,120.445162 108.398045,120.421162 C101.790045,120.395162 96.6570451,123.346162 92.6590451,128.372162 C86.8920451,135.623162 82.3660451,144.002162 73.5930451,148.458162 C72.6230451,148.951162 71.8440451,150.870162 71.9490451,152.041162 C72.0120451,152.757162 73.8580451,153.557162 75.0270451,153.896162 C85.4350451,156.917162 96.0060451,157.355162 106.605045,155.220162 C121.615045,152.197162 135.148045,146.270162 144.899045,133.883162 C147.134045,131.043162 148.671045,127.541162 149.999045,124.136162 C150.937045,121.732162 149.904045,120.061162 146.807045,120.124162 Z M23.4040451,101.209162 C21.8500451,99.0711618 20.1600451,96.7991618 18.5270451,94.4861618 C17.2430451,92.6671618 16.0330451,92.2551618 14.1820451,93.9691618 C6.39904513,101.173162 3.61404513,119.419162 8.85604513,128.548162 C13.7220451,119.405162 18.6490451,110.145162 23.4040451,101.209162 Z M232.430045,105.104162 C228.656045,104.363162 228.293045,102.800162 226.654045,100.769162 C218.093045,90.1581618 211.734045,80.3221618 200.502045,69.3351618 C182.426045,50.4831618 159.960045,40.7381618 133.743045,39.2861618 C119.518045,38.4991618 105.494045,39.7061618 91.5220451,41.8321618 C84.8030451,42.8541618 80.3970451,40.2351618 77.1480451,34.8431618 C75.9210451,32.8071618 74.6130451,30.6511618 74.1070451,28.3801618 C72.2390451,19.9951618 70.6140451,11.5531618 69.0630451,3.10216176 C68.5020451,0.0461617608 67.6340451,-0.665838239 64.7930451,0.588161761 C60.1170451,2.65316176 57.0210451,6.32916176 55.6240451,11.0781618 C54.4210451,15.1691618 53.3440451,19.5081618 53.4090451,23.7181618 C53.5590451,33.4031618 54.2960451,43.0871618 55.0790451,52.7481618 C55.5140451,58.1241618 54.7540451,62.7851618 51.0320451,67.0701618 C46.8000451,71.9431618 43.1580451,77.3271618 39.2290451,82.4671618 C25.0340451,101.039162 13.2170451,120.935162 5.55204513,143.125162 C1.65504513,154.403162 -1.33695487,165.821162 0.61204513,177.960162 C1.27404513,182.082162 1.60904513,186.256162 2.10004513,190.406162 C2.69004513,195.398162 9.53504513,201.396162 14.5610451,201.312162 C20.3300451,201.217162 25.3300451,198.816162 29.6920451,195.408162 C37.3940451,189.391162 45.8990451,184.862162 54.6060451,180.562162 C64.9730451,175.442162 74.4950451,169.052162 82.5330451,160.631162 C83.1250451,160.010162 83.5960451,159.274162 84.2020451,158.490162 C80.1000451,157.500162 76.3290451,156.771162 72.6740451,155.661162 C68.6900451,154.451162 67.9000451,151.469162 70.5850451,148.232162 C71.4840451,147.148162 72.7660451,146.389162 73.8250451,145.428162 C76.9060451,142.633162 80.1850451,140.011162 82.9650451,136.941162 C85.6040451,134.026162 87.6200451,130.558162 90.0720451,127.462162 C94.4720451,121.905162 100.194045,118.772162 107.376045,118.631162 C111.688045,118.547162 116.005045,118.478162 120.316045,118.576162 C123.725045,118.653162 126.450045,117.558162 129.131045,115.361162 C135.697045,109.981162 141.295045,104.594162 148.327045,99.8651618 C159.479045,93.6301618 167.845045,90.9601618 178.568045,92.0371618 C197.826045,93.9721618 212.197045,104.166162 223.837045,118.924162 C224.266045,119.467162 224.630045,120.225162 224.551045,121.005162 C224.472045,121.785162 223.348045,121.410162 223.348045,121.410162 C223.348045,121.410162 213.996045,111.625162 209.610045,107.048162 C207.199045,110.402162 205.944045,112.699162 203.953045,115.137162 C201.235045,118.465162 197.899045,121.356162 195.568045,124.917162 C191.783045,130.698162 193.395045,139.323162 198.513045,142.676162 C198.949045,142.006162 199.668045,141.377162 199.770045,140.660162 C200.165045,137.888162 200.390045,135.798162 203.678045,135.584162 C205.170045,135.487162 204.104045,133.748162 206.934045,133.596162 C207.817045,133.664162 207.749045,134.412162 208.632045,134.344162 C209.346045,134.242162 209.663045,133.013162 210.433045,132.679162 C211.962045,132.016162 213.995045,132.098162 215.500045,132.160162 C218.290045,132.275162 219.623045,130.809162 219.986045,129.020162 C220.226045,127.841162 220.335045,126.914162 220.913045,124.844162 C222.249045,130.179162 225.721045,131.789162 230.029045,131.751162 C232.066045,131.733162 234.161045,131.309162 236.125045,131.660162 C240.910045,131.965162 241.757045,133.038162 244.453045,134.063162 C248.610045,135.641162 252.387045,137.544162 253.822045,142.464162 C254.247045,142.331162 255.079045,142.226162 255.521045,141.377162 C255.962045,140.527162 255.952045,139.375162 255.987045,137.928162 C256.382045,121.576162 248.125045,109.990162 232.430045,105.104162 Z M63.5550451,130.645162 C67.3350451,130.584162 67.9050451,131.451162 66.3150451,134.744162 C65.9600451,135.478162 65.6050451,136.282162 65.5420451,137.077162 C65.0380451,143.457162 61.9030451,148.021162 56.3680451,151.179162 C53.5700451,152.775162 51.1190451,154.983162 48.3040451,156.542162 C46.7600451,157.397162 44.3560451,158.311162 43.1290451,157.675162 C42.4680451,157.333162 42.0950451,156.433162 41.7850451,155.411162 C41.1920451,153.446162 41.0410451,151.343162 41.5070451,149.344162 C43.8470451,139.311162 53.4040451,130.811162 63.5550451,130.645162 L63.5550451,130.645162 Z M40.7880451,164.785162 C40.8280451,163.933162 44.7560451,160.553162 45.7510451,160.713162 C46.7450451,160.872162 46.6890451,161.576162 46.6930451,162.599162 C46.6970451,163.621162 42.7610451,167.147162 40.8660451,165.969162 C40.4240451,165.590162 40.6770451,164.950162 40.7880451,164.785162 L40.7880451,164.785162 Z M77.9810451,161.373162 C72.9860451,165.994162 67.4110451,169.695162 61.9910451,173.112162 C57.7560451,175.781162 53.1380451,177.837162 48.8370451,180.411162 C42.2880451,184.330162 35.8580451,188.449162 29.3900451,192.505162 C24.5710451,195.528162 19.8860451,198.884162 13.6850451,198.726162 C13.7820451,198.211162 13.7690451,197.847162 13.8700451,197.811162 C20.3930451,195.522162 25.2040451,191.197162 29.6560451,185.957162 C32.3440451,182.794162 36.3720451,180.608162 40.1010451,178.526162 C47.9030451,174.171162 54.2240451,168.423162 59.0400451,160.869162 C62.4770451,155.479162 62.6110451,155.694162 68.3080451,158.183162 C71.2390451,159.464162 73.7520451,159.919162 77.9810451,161.373162 L77.9810451,161.373162 Z M169.788045,84.9111618 C177.265045,84.7561618 180.689045,85.6251618 185.991045,86.8651618 C190.191045,87.8831618 193.126045,90.6921618 194.842045,92.9631618 C188.154045,90.9171618 184.771045,89.8161618 178.151045,89.2261618 C163.923045,87.5271618 151.433045,91.9691618 140.480045,100.919162 C135.848045,104.704162 131.255045,108.591162 127.080045,112.858162 C124.612045,115.380162 124.563045,116.040162 118.631045,115.665162 C123.877045,107.548162 128.660045,99.3261618 133.345045,91.1821618 C148.498045,64.8411618 186.579045,69.3521618 199.665045,84.6271618 C200.199045,85.2511618 201.010045,86.9051618 201.010045,86.9051618 C201.010045,86.9051618 188.626045,80.2801618 179.518045,80.2801618 C174.032045,80.2801618 172.657045,80.6851618 169.266045,81.2681618 C168.371045,81.4221618 166.875045,82.1971618 166.887045,83.5071618 C166.900045,84.8181618 168.775045,84.7671618 169.788045,84.9111618 L169.788045,84.9111618 Z M249.661045,132.818162 C245.685045,126.661162 239.677045,127.994162 234.052045,127.969162 C232.376045,127.961162 230.699045,128.057162 229.022045,128.118162 C226.191045,128.220162 223.803045,127.558162 222.568045,124.645162 C222.250045,123.896162 221.453045,122.737162 220.791045,122.619162 C220.145045,122.796162 219.930045,123.217162 219.815045,123.462162 C217.262045,128.892162 212.309045,129.750162 207.167045,129.859162 C204.193045,129.922162 201.757045,130.334162 200.294045,133.287162 C200.011045,133.860162 198.564045,134.518162 198.314045,134.316162 C197.680045,133.806162 196.902045,132.652162 197.101045,132.071162 C197.860045,129.859162 198.665045,127.538162 200.032045,125.683162 C203.499045,120.978162 207.279045,116.503162 211.255045,111.535162 C213.129045,113.510162 215.185045,115.728162 217.298045,117.889162 C218.967045,119.596162 220.527045,121.506162 222.486045,122.793162 C223.519045,123.472162 225.753045,123.576162 226.608045,122.893162 C227.346045,122.304162 227.438045,119.943162 226.865045,118.876162 C225.695045,116.695162 223.846045,114.887162 222.354045,112.869162 C221.240045,111.363162 220.248045,109.768162 218.922045,107.797162 C232.313045,105.407162 252.201045,121.667162 249.661045,132.818162 L249.661045,132.818162 Z" fill="#000000"></path>
    </g>
</svg>

<svg xmlns="http://www.w3.org/2000/svg" viewBox="0 0 256.001 201.313">
  <path d="M146.807 120.124c-6.579.134-13.163.041-19.745.041v.261c-6.221 0-12.443.02-18.664-.005-6.608-.026-11.741 2.925-15.739 7.951-5.767 7.251-10.293 15.63-19.066 20.086-.97.493-1.749 2.412-1.644 3.583.063.716 1.909 1.516 3.078 1.855 10.408 3.021 20.979 3.46 31.578 1.324 15.01-3.023 28.543-8.95 38.294-21.337 2.235-2.84 3.772-6.342 5.1-9.747.938-2.404-.095-4.075-3.192-4.012zM23.404 101.21c-1.554-2.138-3.244-4.41-4.877-6.723-1.284-1.819-2.494-2.23-4.345-.517-7.783 7.204-10.568 25.45-5.326 34.58l14.548-27.34zm209.026 3.895c-3.774-.74-4.137-2.304-5.776-4.335-8.561-10.61-14.92-20.447-26.152-31.434-18.076-18.852-40.542-28.597-66.759-30.049-14.225-.787-28.249.42-42.221 2.546-6.719 1.022-11.125-1.597-14.374-6.989-1.227-2.036-2.535-4.192-3.041-6.463-1.868-8.385-3.493-16.827-5.044-25.278-.561-3.056-1.429-3.768-4.27-2.514-4.676 2.065-7.772 5.741-9.169 10.49-1.203 4.091-2.28 8.43-2.215 12.64.15 9.685.887 19.37 1.67 29.03.435 5.376-.325 10.037-4.047 14.322-4.232 4.873-7.874 10.257-11.803 15.397-14.195 18.572-26.012 38.468-33.677 60.658-3.897 11.278-6.889 22.696-4.94 34.835.662 4.122.997 8.296 1.488 12.446.59 4.992 7.435 10.99 12.461 10.906 5.769-.095 10.769-2.496 15.131-5.904 7.702-6.017 16.207-10.546 24.914-14.846 10.367-5.12 19.889-11.51 27.927-19.93.592-.622 1.063-1.358 1.669-2.142-4.102-.99-7.873-1.719-11.528-2.829-3.984-1.21-4.774-4.192-2.089-7.429.899-1.084 2.181-1.843 3.24-2.804 3.081-2.795 6.36-5.417 9.14-8.487 2.639-2.915 4.655-6.383 7.107-9.479 4.4-5.557 10.122-8.69 17.304-8.83 4.312-.085 8.629-.154 12.94-.056 3.409.077 6.134-1.018 8.815-3.215 6.566-5.38 12.164-10.767 19.196-15.496 11.152-6.235 19.518-8.905 30.241-7.828 19.258 1.935 33.629 12.13 45.269 26.887.429.543.793 1.301.714 2.081-.079.78-1.203.405-1.203.405s-9.352-9.785-13.738-14.362c-2.411 3.354-3.666 5.651-5.657 8.09-2.718 3.327-6.054 6.218-8.385 9.78-3.785 5.78-2.173 14.405 2.945 17.758.436-.67 1.155-1.299 1.257-2.016.395-2.772.62-4.862 3.908-5.076 1.492-.097.426-1.836 3.256-1.988.883.068.815.816 1.698.748.714-.102 1.031-1.33 1.801-1.665 1.529-.663 3.562-.58 5.067-.519 2.79.115 4.123-1.35 4.486-3.14.24-1.179.349-2.106.927-4.176 1.336 5.335 4.808 6.945 9.116 6.907 2.037-.018 4.132-.442 6.096-.09 4.785.304 5.632 1.377 8.328 2.402 4.157 1.578 7.934 3.481 9.369 8.401.425-.133 1.257-.238 1.699-1.087.441-.85.431-2.002.466-3.449.395-16.352-7.862-27.938-23.557-32.824zM63.555 130.645c3.78-.06 4.35.806 2.76 4.1-.355.733-.71 1.537-.773 2.332-.504 6.38-3.639 10.944-9.174 14.102-2.798 1.596-5.249 3.804-8.064 5.363-1.544.855-3.948 1.77-5.175 1.133-.661-.342-1.034-1.242-1.344-2.264-.593-1.965-.744-4.068-.278-6.067 2.34-10.033 11.897-18.533 22.048-18.699zm-22.767 34.14c.04-.852 3.968-4.232 4.963-4.072.994.16.938.863.942 1.886.004 1.022-3.932 4.548-5.827 3.37-.442-.379-.189-1.019-.078-1.184zm37.193-3.412c-4.995 4.621-10.57 8.322-15.99 11.74-4.235 2.668-8.853 4.724-13.154 7.298-6.549 3.92-12.979 8.038-19.447 12.094-4.819 3.023-9.504 6.38-15.705 6.221.097-.515.084-.879.185-.915 6.523-2.289 11.334-6.614 15.786-11.854 2.688-3.163 6.716-5.349 10.445-7.43 7.802-4.356 14.123-10.104 18.939-17.658 3.437-5.39 3.571-5.175 9.268-2.686 2.931 1.281 5.444 1.736 9.673 3.19zm91.807-76.462c7.477-.155 10.901.714 16.203 1.954 4.2 1.018 7.135 3.827 8.851 6.098-6.688-2.046-10.071-3.147-16.691-3.737-14.228-1.699-26.718 2.743-37.671 11.693-4.632 3.785-9.225 7.672-13.4 11.94-2.468 2.521-2.517 3.181-8.449 2.806 5.246-8.117 10.029-16.339 14.714-24.483 15.153-26.34 53.234-21.83 66.32-6.555.534.624 1.345 2.278 1.345 2.278s-12.384-6.625-21.492-6.625c-5.486 0-6.861.405-10.252.988-.895.154-2.391.93-2.379 2.24.013 1.31 1.888 1.26 2.901 1.403zm79.873 47.907c-3.976-6.157-9.984-4.824-15.609-4.849-1.676-.008-3.353.088-5.03.15-2.831.101-5.219-.56-6.454-3.474-.318-.749-1.115-1.908-1.777-2.026-.646.177-.861.598-.976.843-2.553 5.43-7.506 6.288-12.648 6.397-2.974.063-5.41.475-6.873 3.428-.283.573-1.73 1.231-1.98 1.03-.634-.51-1.412-1.665-1.213-2.246.76-2.212 1.564-4.533 2.931-6.388 3.467-4.705 7.247-9.18 11.223-14.148 1.874 1.975 3.93 4.193 6.043 6.354 1.67 1.707 3.229 3.617 5.188 4.904 1.033.68 3.267.783 4.122.1.738-.589.83-2.95.257-4.017-1.17-2.18-3.019-3.989-4.51-6.007-1.115-1.506-2.107-3.1-3.433-5.072 13.391-2.39 33.279 13.87 30.739 25.021z"/>
</svg>
